X: 1
T: Reel de Charny
R: reel
Z: 2007 John Chambers <jc:trillian.mit.edu> from Pascal Gemme's blog
M: 2/4
L: 1/16
K: G
|: DG,B,D G,DB,D | CDEG cGBG | ADFA DAFA | GABc ddd2  |
|  DG,B,D G,DB,D | CDEG cGBG | ADFA DAFA | GBAF GGG2 :|
|: gfga   bgdg   | dgdg Bdef | gfga bgdg | defg a2ab  |
|  a2ga   bgdg   | dgdg Bdef | gBBc dedc | BGAF G2G2 :|
